X:112
T:The High Caul Cap   Set (long) Dance   Allan's #112  pp28
C:Trad/Anon
B:Allan's Irish Fiddler (pub. Mozart Allen,  Glascow) date unknown
Z:FROM ALLAN'S TO NOTEWORTHY, FROM NOTEWORTHY TO ABC, MIDI AND .TXT BY VINCE
BRENNAN Dec. 2002 (HTTP://WWW.SOSYOURMOM.COM)
I:abc2nwc
M:2/4
L:1/16
K:A
E2|A3B c2e2|dcBA c3d|c2B2 B2AB|.c2.B2 .B2.E2|
A3B c2e2|dcBA cdBc|.A2.F2 F2(EF)|.A2.F2 .F2:|
|:e2|.f3.a e2f2|dcBA c3d|.c2.B2 .B2(AB)|.c2.B2 .B2.c2|fefg e2f2|
dcBA cdBc|.A2.F2 F2EF|[1A2F2 F2:|[2A2F2 F2E2
